X:288
T:Reincarnation Party, The
M:C|
C:© Paul Gitlitz 2008
R:Reel
N:Come as you were.
K:C
"G"G^FD>C- "F"C2 C2|CC2C "Dm"DEFD|"G"G^F>DC- "F"C2C2|"G"G,A,=B,G, "F"C4|!
"G"G^FD>C- "F"C2 C2|CC2C "Dm"DEF2|"G"G^F>DC- "F"C2C2|"G"G,A,=B,2 "C"C4:|!
K:F
|:"Bb"FEDG,- "Gm"G,A,B,G,|"Bb"FEDB,- B,2B,B,|FEDB,- "Gm"B,G,A,G,|G,A,B,2 "C"C4|!
"Bb"FEDG,- "Gm"G,A,B,G,|"Bb"FEDB,- B,2B,B,|FEDB,- "Gm"B,G,A,G,|G,A,B,2 "F"C4:|
